X: 4323
T: WALTZ FROM FAUST. (Faust.)
%R: waltz
B: James Kerr "Merry Melodies" v.4 p.34 #323
Z: 2016 John Chambers <jc:trillian.mit.edu>
N: The 3rd strain key change is odd, since its only c notes are all sharp.
M: 3/4
L: 1/8
K: D
|:!f!\
d2z2d2- | d2f3A | d2z2d2- | d2a3f |\
[1,3 d2z2d2- | d2d'3c' | b2z2a2- | ae^degc :|\
[2,4 e2z2e2- | e2d'3^g | b2a3a | A6 |]
|:\
f2zcd2- | dABcde | f2zcd2- | ddefga |\
[1,3 b2z^ga2- | a^defga | b2zgc'2- | c'baefg :|\
[2,4 b2zgc'2- | c'bae'bc' | d'afdAF | D2z2z2 H|]
[K:=c][K:G]\
|:!p!\
(D4E2) | (E4F2) | F2G2A2 |\
[1 B2d2G2 | F2z2(A2 | E2)z2(A2 | _E2)z2(A2 | D6) :|\
[2 B2^c2d2 | a2z2a2 | B6 | ^cdefgc | d2z2z2 |]

%%sep 1 1 500
%%sep 1 1 500

